packages/kaspersky-hexa-ui-icons/src/iconsSVGs/24/Filter.svg

<svg width="24" height="24" viewBox="0 0 24 24" fill="none" xmlns="http://www.w3.org/2000/svg">
<path fill-rule="evenodd" clip-rule="evenodd" d="M3.57928 6.80939C2.02165 4.6758 3.75402 2 6.21068 2H17.7898C20.2465 2 21.9789 4.6759 20.4211 6.8095C20.4204 6.81044 20.4198 6.81137 20.4191 6.8123L15.0002 14.3231V19C15.0002 19.8 14.7262 20.5602 14.1768 21.1256C13.6232 21.6955 12.8552 22 12.0003 22C11.1453 22 10.3773 21.6955 9.82366 21.1256C9.27432 20.5602 9.00024 19.8 9.00024 19V14.3231L3.57928 6.80939ZM6.21068 4C5.12108 4 4.75614 5.0308 5.19553 5.63137L5.19945 5.63673L10.8112 13.4149C10.9341 13.5852 11.0002 13.79 11.0002 14V19C11.0002 19.3435 11.1137 19.5833 11.2582 19.732C11.3983 19.8762 11.6303 20 12.0003 20C12.3702 20 12.6022 19.8762 12.7423 19.732C12.8868 19.5833 13.0002 19.3435 13.0002 19V14C13.0002 13.79 13.0664 13.5852 13.1893 13.4149L18.8049 5.63136C19.2443 5.03079 18.8794 4 17.7898 4H6.21068Z" fill="black"/>
</svg>

<svg xmlns="http://www.w3.org/2000/svg" width="24" height="24" fill="none" viewBox="0 0 24 24"><path fill="#000" fill-rule="evenodd" d="M3.579 6.8094C2.0214 4.6758 3.7538 2 6.2104 2h11.5791c2.4567 0 4.1891 2.6759 2.6314 4.8095l-.0021.0028L15 14.3231V19c0 .8-.2741 1.5602-.8234 2.1256C13.623 21.6955 12.855 22 12 22s-1.6229-.3045-2.1766-.8744C9.2741 20.5602 9 19.8 9 19v-4.6769zM6.2104 4C5.1208 4 4.756 5.0308 5.1953 5.6314l.004.0053 5.6117 7.7782A1 1 0 0 1 11 14v5c0 .3435.1135.5833.2579.732.1401.1442.3722.268.7421.268s.602-.1238.7421-.268c.1444-.1487.2579-.3885.2579-.732v-5a1 1 0 0 1 .189-.5851l5.6157-7.7835C19.2441 5.0308 18.8792 4 17.7895 4z"/></svg>
